!!!COM: Dunstable, John
!!!OTL: Gaude virgo Kat[h]erian
!!!ONM: No. 52
!!!YOR: from: "Musica Britannica" Vol. 8, edited by Manfred F. Bukofzer,
!!!YOR: 2nd rev. ed. (prepared by Margaret Bent, Ian Bent & Brian Trowell), pp.129-130
!!!YOO: Royal Musical Association (London)
!!!YOY: 1970
**kern	**kern	**kern
*ICvox	*ICvox	*ICvox
! tenor	! contratenor	! discantus
*M3/4	*M3/4	*M3/4
=1	=1	=1
*>A	*>A	*>A
!! Section 'A'; (O) mensuration.
[2.F	2.c	2.f
=2	=2	=2
2.F]	4c	4f
.	4.f	4.a
.	16e	8g
.	16f	.
=3	=3	=3
2.c	2g	4.e
.	.	8f
.	4e	4g
=4	=4	=4
2e	2c	4g
.	.	8a
.	.	4cc
4e	4c	.
.	.	8b
=5	=5	=5
4f	4d	4a
4e	4e	4g
4c	4g	4cc
=6	=6	=6
8e	8g	8cc
8f	4a	16b
.	.	16cc
2d	.	8dd
.	4f	8a
.	.	4b
.	8e	.
=7	=7	=7
2c	4g	2cc
.	4e	.
4A	4c	4r
=8	=8	=8
2F	4c	2a
.	4f	.
[4c	4e	4r
=9	=9	=9
4c]	2e	2g
2e	.	.
.	4c	[4cc
=10	=10	=10
4c	4e	4cc]
2d	2f	4.b
.	.	8a
=11	=11	=11
4f	4d	4a
4e	4.e	4g
4c	.	4e
.	8c	.
=12	=12	=12
8c	8e	8a
8d	8f	16g
.	.	16a
2B-	4.d	8b-
.	.	4g
.	8c	8f
=13	=13	=13
2.A	2e	2a
.	[4c	4f
=14	=14	=14
2.F	4c]	8a
.	.	8b-x
.	2f	8cc
.	.	16b-x
.	.	16cc
.	.	8dd
.	.	8cc
=15	=15	=15
2.c	2e	4.a
.	.	8g
.	4c	8f
.	.	8e
=16	=16	=16
4c	4g	4e
8.d	4f	4d
16c	.	.
4B-	4d	4g
=17	=17	=17
4A	4e	8a
.	.	4cc
8A	8c	.
4G	4d	8b-x
.	.	8g
8c	8e	[8a
=18	=18	=18
8B-	4.d	16a]
.	.	16g
4G	.	8g
.	.	8d
8B-	16c	8g
.	16d	.
4A	8c	8f#x
.	8B-	8e
=19	=19	=19
[2.G	[2.d	[2.g
=19a	=19a	=19a
2.G]	2.d]	2.g]
=20	=20	=20
*>B	*>B	*>B
!! Section 'B'; (O) mensuration.
2f	2a	2.r
[4g	4b	.
=21	=21	=21
4g]	4g	2.r
2e	4.cc	.
.	8b	.
=22	=22	=22
4d	4b	2.r
4.c	4.a	.
8B-	8g	.
=23	=23	=23
4B-	4g	2.r
8d	8f	.
8c	4a	.
8A	.	.
8B-	8g	.
=24	=24	=24
8c	8e	2.r
4d	8f	.
.	8d	.
8B-	4g	.
4c	.	.
.	8a	.
=25	=25	=25
8d	8b	2.r
4e	8g	.
.	8a	.
8c	4cc	.
4d	.	.
.	8b	.
=26	=26	=26
2c	4cc	2.r
.	4r	.
4A	4cc	.
=27	=27	=27
2G	4.dd	2.r
.	8cc	.
4G	8b-	.
.	8a	.
=28	=28	=28
4F	8a	2.r
.	8f	.
8B-	8g	.
8A	4a	.
4c	.	.
.	8e	.
=29	=29	=29
4d	4d	2.r
8A	8f	.
8G	16g	.
.	16f	.
[4c	8g	.
.	[8a	.
=30	=30	=30
4c]	8a]	2.r
.	4g	.
8g	.	.
4c	8e	.
.	8c	.
8Bnx	8d	.
=31	=31	=31
2.c	4c	2.r
.	4r	.
.	[4g	.
=32	=32	=32
2.c	4g]	2.r
.	2a	.
=33	=33	=33
4G	4b-x	2.r
8B-	8g	.
8A	4a	.
4c	.	.
.	8cc	.
=34	=34	=34
4d	8b-x	2.r
.	4a	.
8c	.	.
8B-	8.g	.
8G	.	.
.	16f	.
8B-	8g	.
=35	=35	=35
8A	4a	2.r
8d	.	.
8e	4e	.
8c#x	.	.
4d	8d	.
.	8f	.
=36	=36	=36
4c	8e	2.r
.	8c	.
8B-	8d	.
4c	8e	.
.	8c	.
[8A	8f	.
=37	=37	=37
8A]	16e	2.r
.	16f	.
8B-	8g	.
8F	8a	.
8A	8.f	.
4G	.	.
.	16d	.
.	8e	.
=38	=38	=38
[2.F	[2.f	2.r
=38a	=38a	=38a
2.F]	2.f]	2.r
=39	=39	=39
*>C	*>C	*>C
!! Section 'C'; (C/) mensuration.
*M2/2	*M2/2	*M2/2
1F	1f	1a
=40	=40	=40
2f	1F	4.cc
.	.	8b-x
2f	.	4dd
.	.	4dd
=41	=41	=41
4e	2c	4cc
4c	.	8a
.	.	8b-x
4e	4G	4g
4f	4F	4cc
=42	=42	=42
4d	4B-	8b-x
.	.	8a
4c	4c	4.a
2B-	2d	.
.	.	16g
.	.	16a
.	.	8g
.	.	8f
=43	=43	=43
1A	2.e	2a
.	.	2r
.	4c	.
=44	=44	=44
*M3/2	*M3/2	*M3/2
2F	2.f	2cc
4A	.	4cc
2G	2g	4.dd
.	.	8b-x
4G	4d	4b-x
=45	=45	=45
*M2/2	*M2/2	*M2/2
4B-	4d	4g
4A	4c	4.a
4c	4e	.
.	.	8g
[4B-	[4d	4g
=46	=46	=46
8B-]	8d]	8d
8c	8e	8g
4A	4c	8a
.	.	8f#x
2G	2d	2g
=47	=47	=47
1c	2.e	4r
.	.	4a
.	.	4g
.	[4g	[4e
=48	=48	=48
4c	4g]	8e]
.	.	8f
4e	4c	4g
4f	2d	4a
4d	.	4b
=49	=49	=49
4e	4r	4g
4c	4g	4.cc
2d	4.f	.
.	.	8a
.	.	4b
.	8e	.
=50	=50	=50
2c	4g	2cc
.	2a	.
2A	.	4r
.	4f	4cc
=51	=51	=51
2G	2g	4b
.	.	4.d
[2c	[2e	.
.	.	8c
.	.	4a
=52	=52	=52
2c]	4e]	4g
.	4c	4e
4B-	4d	4g
4A	4c	8a
.	.	[8cc
=53	=53	=53
4d	4f	8cc]
.	.	8b
4c	4e	4a
2B-	8f	8g
.	4d	8g
.	.	8a
.	8c	8g
=54	=54	=54
1A	1e	1a
=55	=55	=55
*>D	*>D	*>D
!! Section 'D'; (O) mensuration.
*M3/4	*M3/4	*M3/4
2.c	2.r	[2.cc
=56	=56	=56
4e	2.r	4cc]
4d	.	4.dd
[4f	.	.
.	.	8cc
=57	=57	=57
8f]	2.r	4a
16e	.	.
16f	.	.
4g	.	4g
8f	.	8a
8e	.	[8cc
=58	=58	=58
8c	2.r	8cc]
4d	.	8b
.	.	4a
8c	.	.
8B-	.	8g
8G	.	8e
=59	=59	=59
8A	2.r	8f
8G	.	4g
8c	.	.
4c	.	8.e
.	.	16c
8Bnx	.	8d
=60	=60	=60
2c	2.r	4c
.	.	4r
4r	.	4e
=61	=61	=61
2d	2.r	4d
.	.	4.a
4A	.	.
.	.	8g
=62	=62	=62
8B-	2.r	4.g
8c	.	.
2A	.	.
.	.	16d
.	.	16g
.	.	8f#
.	.	8e
=63	=63	=63
8G	2.r	4g
2c	.	.
.	.	4a
.	.	8b
8e	.	[8cc
=64	=64	=64
*M4/4	*M4/4	*M4/4
8c	1r	8cc]
4d	.	8b
.	.	8dd
8e	.	8cc
8f	.	4a
8d	.	.
8e	.	4g
8g	.	.
=65	=65	=65
*M3/4	*M3/4	*M3/4
8f	2.r	8a
4g	.	8b
.	.	8g
8e	.	4cc
4d	.	.
.	.	8b
=66	=66	=66
2c	2.r	2cc
4A	.	4r
=67	=67	=67
2F	2.r	4.a
.	.	8g
4B-	.	4g
=68	=68	=68
4A	2.r	4a
4c	.	8e
.	.	4g
8B-	.	.
[8d	.	8f
=69	=69	=69
8d]	2.r	4d
8f	.	.
4.g	.	4e
.	.	8c
8e	.	[8c
=70	=70	=70
4d	2.r	8c]
.	.	8B
4c	.	4c
8B-	.	8d
8G	.	8e
=71	=71	=71
8A	2.r	8f
8G	.	8g
8B-	.	16f
.	.	16g
8c	.	8a
4A	.	8e
.	.	8f#x
=72	=72	=72
[2.G	2.r	[2.g
=72a	=72a	=72a
2.G]	2.r	2.g]
=73	=73	=73
*>E1	*>E1	*>E1
!! Section 'E1'; (O) mensuration.
2.F	2.f	2a
.	.	4cc
=74	=74	=74
4A	4f	4cc
2G	2g	4b
.	.	4g
=75	=75	=75
2G	2g	4b
.	.	4.dd
4G	4d	.
.	.	8cc
=76	=76	=76
4c	4e	4cc
2d	4.f	4.b-
.	8e	8a
=77	=77	=77
4c	4e	4.a
2B-	4.d	.
.	.	16g
.	.	16a
.	.	8g
.	8c	8f
=78	=78	=78
2.A	2e	4a
.	.	4r
.	4c	4e
=79	=79	=79
2.A	2.c	4e
.	.	4.f
.	.	8e
=80	=80	=80
4G	4d	4g
2c	2e	8e
.	.	4a
.	.	8g
=81	=81	=81
8G	2r	4g
2c	.	.
.	.	8e
.	.	4c
.	4f	.
8Bnx	.	8d
=82	=82	=82
4.c	4e	4c
.	4c	8e
8A	.	8f
8B-	8d	8g
8A	8c	[8a
=83	=83	=83
4F	4c	8a]
.	.	8.f
8A	8r	.
.	.	16e
8B-	8d	8f
4G	4Bnx	8g
.	.	8e
=84	=84	=84
2.F	2.c	2f
.	.	4r
=85	=85	=85
2c	2e	4.a
.	.	8g
4c	4c	4e
=86	=86	=86
4B-	4f	4d
2c	4r	4e
.	4e	4c
=87	=87	=87
2e	4c	4r
.	4g	4.cc
4d	4f	.
.	.	8b
=88	=88	=88
2f	4d	8dd
.	.	8cc
.	4f	4a
4e	4g	4g
=89	=89	=89
4c	4g	4.cc
2d	4.f	.
.	.	16b
.	.	16cc
.	.	8.b
.	8e	.
.	.	16a
=90	=90	=90
[2.c	2.g	2c
.	.	4r
=91	=91	=91
*>E2	*>E2	*>E2
!! Section 'E2'; (O) mensuration.
2.c]	2.r	[2.cc
=92	=92	=92
4A	2.r	4cc]
2G	.	4.dd
.	.	8b-x
=93	=93	=93
4g	2.r	8.b-x
.	.	16g
8f	.	8a
4g	.	8b-x
.	.	8g
8f	.	8a
=94	=94	=94
8e	2.r	4cc
8c	.	.
8d	.	8b-x
8c	.	8a
8A	.	8f
8B-	.	8g
=95	=95	=95
8A	2.r	4a
8d	.	.
8e	.	4e
8c#x	.	.
[4d	.	4d
=96	=96	=96
4d]	2.r	4r
4f	.	4a
8a	.	8cc
[8g	.	8b
=97	=97	=97
8g]	2.r	4g
8e	.	.
8f	.	8a
4g	.	8b
.	.	4g
[8e	.	.
=98	=98	=98
8e]	2.r	8r
8f	.	4dd
8g	.	.
8c	.	8cc
4d	.	4b
=99	=99	=99
*>E3	*>E3	*>E3
!! Section 'E3'; (O) mensuration.
2c	4.g	2cc
.	8e	.
4A	4f	4cc
=100	=100	=100
2G	2g	4.dd
.	.	8cc
4A	4e	4a
=101	=101	=101
2.c	2e	2g
.	4e	4a
=102	=102	=102
4e	4g	4cc
2d	4.f	4.b
.	8e	8a
=103	=103	=103
4f	4d	4a
4.e	4e	4g
.	4c	4e
8c	.	.
=104	=104	=104
8c	8e	8a
8d	4f	16g
.	.	16a
2B-	.	8b-
.	4d	4g
.	8c	8f
=105	=105	=105
2A	2e	4a
.	.	4r
[4F	[4f	4a
=106	=106	=106
4F]	2.f]	2.cc
2A	.	.
=107	=107	=107
4G	4g	4dd
8A	8c	8cc
8G	4d	8b-x
8B-	.	8g
8c	8e	[8a
=108	=108	=108
8A	8c	8a]
8B-	4d	8f
4A	.	8e
.	8c	8f
4G	[4d	4g
=109	=109	=109
4B-	4d]	4d
4c	4e	4.a
4d	4f	.
.	.	8g
=110	=110	=110
4B-	8r	4.g
.	4d	.
2A	.	.
.	8e	16f#x
.	.	16g
.	8.c#x	8f#x
.	.	8e
.	16Bnx	.
=111	=111	=111
[2.G	[2.d	[2.g
=112	=112	=112
2.G]	2.d]	2.g]
==	==	==
*-	*-	*-
!!!ENC: Mark Laxton
!!!EDD: Mark Laxton
!!!YEC: Mark Laxton, 1987
!!!EMD: Reference records added by D. Huron, 2001
!!!EEV: 1.1
